X: 888
T: The spring garden
C: anon.
O: Ireland
B: Francis O'Neill: "The Dance Music of Ireland" (1907) no. 888
R: Hornpipe
Z: Transcribed by Frank Nordberg - http://www.musicaviva.com
F: http://www.musicaviva.com/abc/tunes/ireland/oneill-1001/oneill-1001-088
8.abc
M: 2/4
L: 1/16
K: G
(3(ABc)|dfdf ecAF|GFGB AFDC|B,DGF E2(cB)|(3(ABG) (3(FGE) D2(3(ABc)|dfdf e
cAF|GFGB AFDC|B,DGF EcAF|
G2G2G2::(cB)|AGAB cBcd|edef g2(3(def)|gfed cBAG|Add^c d2(3(ABc)|dfdf ecAF
|GFGB AFDC|B,DGF EcAF|G2G2G2:|
W:
W:
W: From Musica Viva - http://www.musicaviva.com
W: the Internet center for free sheet music downloads.


